svg/24/shield--filled.svg

<svg width="24" height="24" viewBox="0 0 24 24" fill="currentColor" xmlns="http://www.w3.org/2000/svg"><path fill-rule="evenodd" clip-rule="evenodd" d="M11.0287 2.53977L4.02872 6.42866C3.39379 6.7814 2.99141 7.45398 3.03524 8.17899C3.53104 16.3819 9.12574 20.3732 11.2173 21.5864C11.7069 21.8704 12.2932 21.8704 12.7827 21.5864C14.8743 20.3732 20.469 16.3819 20.9648 8.17899C21.0086 7.45398 20.6062 6.7814 19.9713 6.42866L12.9713 2.53977C12.3673 2.20419 11.6328 2.20419 11.0287 2.53977Z"/></svg>

<svg xmlns="http://www.w3.org/2000/svg" width="24" height="24" fill="currentColor" viewBox="0 0 24 24">
  <path fill-rule="evenodd" d="m11.029 2.54-7 3.889c-.635.352-1.038 1.025-.994 1.75.496 8.203 6.09 12.194 8.182 13.407.49.284 1.076.284 1.566 0 2.091-1.213 7.686-5.204 8.182-13.407.044-.725-.359-1.398-.994-1.75l-7-3.89a2 2 0 0 0-1.942 0Z" clip-rule="evenodd"/>
</svg>
